static/img/pages/customers/logos/second_foundation.svg

<svg width="234" height="29" viewBox="0 0 234 29" fill="none" xmlns="http://www.w3.org/2000/svg">
<path fill-rule="evenodd" clip-rule="evenodd" d="M8.88878e-06 0H15.8182V0.925532H14.5775C13.5498 0.925532 12.7166 1.75428 12.7166 2.7766V9.87234H14.5775V10.7979H12.7166V28.0745H15.8182V29H0V28.0745H3.10161V10.7979H1.24064V9.87234H3.10161V2.7766C3.10161 1.75428 2.26842 0.925532 1.24064 0.925532H8.88878e-06V0ZM6.2032 28.0745H9.61497V0.925532H6.2032V28.0745Z" fill="#E6E6E6"/>
<path d="M37.263 21.9629C40.1201 21.9629 41.8757 20.6032 41.8757 18.3313C41.8757 16.4209 40.6192 15.2849 37.6245 14.5793C35.7828 14.149 35.146 13.6843 35.146 12.9442C35.146 12.1525 35.8517 11.6705 37.0049 11.6705C38.2613 11.6705 39.0186 12.3246 39.0186 13.4089H41.6519C41.6519 10.9821 39.8275 9.43306 36.9704 9.43306C34.1994 9.43306 32.4783 10.7928 32.4783 12.9958C32.4783 14.9579 33.8035 16.1283 36.6262 16.7307C38.3301 17.0921 39.1046 17.5912 39.1046 18.4346C39.1046 19.2435 38.3818 19.7082 37.2458 19.7082C35.9205 19.7082 35.06 19.037 35.06 17.8838H32.375C32.375 20.3795 34.2338 21.9629 37.263 21.9629Z" fill="white"/>
<path d="M49.9413 21.9629C52.1616 21.9629 53.9172 20.827 54.7089 18.9165H52.0583C51.6281 19.5189 50.8535 19.8631 49.993 19.8631C48.8054 19.8631 47.876 19.1919 47.635 17.9527H54.881C55.0359 14.6481 53.0738 12.445 49.9758 12.445C47.0498 12.445 45.0361 14.3899 45.0361 17.1954C45.0361 20.018 47.0326 21.9629 49.9413 21.9629ZM47.6522 16.3004C47.9448 15.1989 48.8398 14.5276 49.993 14.5276C51.1978 14.5276 52.0583 15.1989 52.3509 16.3004H47.6522Z" fill="white"/>
<path d="M62.8742 21.9629C65.4215 21.9629 67.3319 20.4655 67.8139 18.0904H65.2666C64.9051 19.0714 64.0101 19.7082 62.9086 19.7082C61.4973 19.7082 60.5162 18.6756 60.5162 17.1954C60.5162 15.7152 61.4973 14.6825 62.9086 14.6825C63.9413 14.6825 64.7847 15.2333 65.2149 16.1455H67.7278C67.3147 13.908 65.3871 12.445 62.8742 12.445C59.9827 12.445 57.9345 14.4244 57.9345 17.1954C57.9345 19.9836 59.9655 21.9629 62.8742 21.9629Z" fill="white"/>
<path d="M75.9271 21.9629C78.9219 21.9629 80.9873 20.018 80.9873 17.1954C80.9873 14.3899 78.9219 12.445 75.9271 12.445C72.9151 12.445 70.8498 14.3899 70.8498 17.1954C70.8498 20.018 72.9151 21.9629 75.9271 21.9629ZM73.4315 17.1954C73.4315 15.7152 74.4642 14.6825 75.9271 14.6825C77.3901 14.6825 78.4056 15.7152 78.4056 17.1954C78.4056 18.6756 77.3901 19.7082 75.9271 19.7082C74.4642 19.7082 73.4315 18.6756 73.4315 17.1954Z" fill="white"/>
<path d="M84.6876 21.722H87.3037V16.9888C87.3037 15.5603 88.0954 14.6825 89.3002 14.6825C90.4189 14.6825 91.0902 15.4742 91.0902 16.7995V21.722H93.7063V16.5241C93.7063 14.0285 92.2778 12.445 89.9198 12.445C88.715 12.445 87.6307 12.8581 86.9078 13.7015L86.6324 12.686H84.6876V21.722Z" fill="white"/>
<path d="M101.83 21.9629C103.138 21.9629 104.257 21.4982 105.066 20.6893L105.376 21.722H107.321V8.98557H104.705V13.3917C103.93 12.7893 102.949 12.445 101.83 12.445C99.1454 12.445 97.2349 14.4244 97.2349 17.1954C97.2349 20.0008 99.1454 21.9629 101.83 21.9629ZM99.8166 17.1954C99.8166 15.7324 100.832 14.6825 102.312 14.6825C103.775 14.6825 104.791 15.7324 104.791 17.1954C104.791 18.6756 103.775 19.7082 102.312 19.7082C100.832 19.7082 99.8166 18.6756 99.8166 17.1954Z" fill="white"/>
<path d="M117.571 21.722H120.307V17.574H124.679V15.1644H120.307V12.1525H125.126V9.67402H117.571V21.722Z" fill="white"/>
<path d="M132.957 21.9629C135.951 21.9629 138.017 20.018 138.017 17.1954C138.017 14.3899 135.951 12.445 132.957 12.445C129.945 12.445 127.879 14.3899 127.879 17.1954C127.879 20.018 129.945 21.9629 132.957 21.9629ZM130.461 17.1954C130.461 15.7152 131.494 14.6825 132.957 14.6825C134.42 14.6825 135.435 15.7152 135.435 17.1954C135.435 18.6756 134.42 19.7082 132.957 19.7082C131.494 19.7082 130.461 18.6756 130.461 17.1954Z" fill="white"/>
<path d="M145.314 21.9629C146.502 21.9629 147.569 21.5499 148.292 20.7065L148.567 21.722H150.512V12.686H147.896V17.4019C147.896 18.8305 147.121 19.7082 145.934 19.7082C144.832 19.7082 144.161 18.9337 144.161 17.6085V12.686H141.545V17.8666C141.545 20.3795 142.973 21.9629 145.314 21.9629Z" fill="white"/>
<path d="M154.851 21.722H157.467V16.9888C157.467 15.5603 158.259 14.6825 159.463 14.6825C160.582 14.6825 161.253 15.4742 161.253 16.7995V21.722H163.869V16.5241C163.869 14.0285 162.441 12.445 160.083 12.445C158.878 12.445 157.794 12.8581 157.071 13.7015L156.796 12.686H154.851V21.722Z" fill="white"/>
<path d="M171.993 21.9629C173.302 21.9629 174.42 21.4982 175.229 20.6893L175.539 21.722H177.484V8.98557H174.868V13.3917C174.093 12.7893 173.112 12.445 171.993 12.445C169.309 12.445 167.398 14.4244 167.398 17.1954C167.398 20.0008 169.309 21.9629 171.993 21.9629ZM169.98 17.1954C169.98 15.7324 170.995 14.6825 172.475 14.6825C173.938 14.6825 174.954 15.7324 174.954 17.1954C174.954 18.6756 173.938 19.7082 172.475 19.7082C170.995 19.7082 169.98 18.6756 169.98 17.1954Z" fill="white"/>
<path d="M184.836 21.8941C186.179 21.8941 187.28 21.4638 188.055 20.6721L188.347 21.722H190.292V16.2832C190.292 13.8908 188.674 12.445 185.972 12.445C183.666 12.445 182.151 13.5466 181.824 15.5087H184.337C184.492 14.8719 185.146 14.4416 185.989 14.4416C187.022 14.4416 187.728 15.0268 187.728 15.9217V16.3348H184.457C182.581 16.3348 181.377 17.4191 181.377 19.0886C181.377 20.827 182.702 21.8941 184.836 21.8941ZM183.958 18.9854C183.958 18.3658 184.475 17.9699 185.266 17.9699H187.745C187.693 19.1919 186.747 20.018 185.439 20.018C184.544 20.018 183.958 19.605 183.958 18.9854Z" fill="white"/>
<path d="M198.556 21.722H200.208V19.4501H199.124C198.091 19.4501 197.609 18.9509 197.609 17.901V14.8202H200.088V12.686H197.609V10.3453H195.578L195.424 11.5156C195.286 12.4451 195.028 12.686 194.047 12.686H193.238V14.8202H194.993V18.2969C194.993 20.5 196.267 21.722 198.556 21.722Z" fill="white"/>
<path d="M203.957 21.722H206.573V12.686H203.957V21.722ZM203.578 9.76008C203.578 10.7239 204.267 11.3952 205.265 11.3952C206.263 11.3952 206.952 10.7239 206.952 9.76008C206.952 8.79624 206.263 8.125 205.265 8.125C204.267 8.125 203.578 8.79624 203.578 9.76008Z" fill="white"/>
<path d="M215.346 21.9629C218.341 21.9629 220.406 20.018 220.406 17.1954C220.406 14.3899 218.341 12.445 215.346 12.445C212.334 12.445 210.268 14.3899 210.268 17.1954C210.268 20.018 212.334 21.9629 215.346 21.9629ZM212.85 17.1954C212.85 15.7152 213.883 14.6825 215.346 14.6825C216.809 14.6825 217.824 15.7152 217.824 17.1954C217.824 18.6756 216.809 19.7082 215.346 19.7082C213.883 19.7082 212.85 18.6756 212.85 17.1954Z" fill="white"/>
<path d="M224.106 21.722H226.722V16.9888C226.722 15.5603 227.514 14.6825 228.719 14.6825C229.838 14.6825 230.509 15.4742 230.509 16.7995V21.722H233.125V16.5241C233.125 14.0285 231.696 12.445 229.339 12.445C228.134 12.445 227.049 12.8581 226.327 13.7015L226.051 12.686H224.106V21.722Z" fill="white"/>
</svg>

<svg width="234" height="29" viewBox="0 0 234 29" fill="none" xmlns="http://www.w3.org/2000/svg"><path fill-rule="evenodd" clip-rule="evenodd" d="M0 0h15.818v.926h-1.24a1.855 1.855 0 00-1.861 1.85v7.096h1.86v.926h-1.86v17.277h3.101V29H0v-.925h3.102V10.797H1.24v-.926H3.1V2.777A1.856 1.856 0 001.242.926H0V0zm6.203 28.075h3.412V.925H6.203v27.15z" fill="#E6E6E6"/><path d="M37.263 21.963c2.857 0 4.613-1.36 4.613-3.632 0-1.91-1.257-3.046-4.252-3.752-1.841-.43-2.478-.895-2.478-1.635 0-.792.706-1.274 1.859-1.274 1.256 0 2.014.655 2.014 1.739h2.633c0-2.427-1.825-3.976-4.682-3.976-2.77 0-4.492 1.36-4.492 3.563 0 1.962 1.325 3.132 4.148 3.735 1.704.361 2.479.86 2.479 1.704 0 .809-.723 1.273-1.86 1.273-1.325 0-2.185-.671-2.185-1.824h-2.685c0 2.495 1.859 4.079 4.888 4.079zm12.678 0c2.22 0 3.976-1.136 4.768-3.047h-2.65c-.43.603-1.206.947-2.066.947-1.188 0-2.117-.671-2.358-1.91h7.246c.155-3.305-1.807-5.508-4.905-5.508-2.926 0-4.94 1.945-4.94 4.75 0 2.823 1.997 4.768 4.905 4.768zM47.652 16.3c.293-1.101 1.188-1.772 2.341-1.772 1.205 0 2.065.67 2.358 1.772h-4.699zm15.222 5.663c2.547 0 4.458-1.498 4.94-3.873h-2.547c-.362.981-1.257 1.618-2.358 1.618-1.412 0-2.393-1.032-2.393-2.513 0-1.48.981-2.513 2.393-2.513 1.032 0 1.876.551 2.306 1.463h2.513c-.413-2.237-2.34-3.7-4.854-3.7-2.891 0-4.94 1.98-4.94 4.75 0 2.789 2.032 4.768 4.94 4.768zm13.053 0c2.995 0 5.06-1.945 5.06-4.768 0-2.805-2.065-4.75-5.06-4.75-3.012 0-5.077 1.945-5.077 4.75 0 2.823 2.065 4.768 5.077 4.768zm-2.496-4.768c0-1.48 1.033-2.513 2.496-2.513s2.479 1.033 2.479 2.513-1.016 2.513-2.479 2.513-2.496-1.032-2.496-2.513zm11.257 4.527h2.616v-4.733c0-1.429.791-2.307 1.996-2.307 1.119 0 1.79.792 1.79 2.117v4.923h2.616v-5.198c0-2.496-1.428-4.079-3.786-4.079-1.205 0-2.29.413-3.012 1.256l-.276-1.015h-1.944v9.036zm17.142.241c1.308 0 2.427-.465 3.236-1.274l.31 1.033h1.945V8.986h-2.616v4.406c-.775-.603-1.756-.947-2.875-.947-2.685 0-4.595 1.98-4.595 4.75 0 2.806 1.91 4.768 4.595 4.768zm-2.013-4.768c0-1.463 1.015-2.513 2.495-2.513 1.463 0 2.479 1.05 2.479 2.513 0 1.48-1.016 2.513-2.479 2.513-1.48 0-2.495-1.032-2.495-2.513zm17.754 4.527h2.736v-4.148h4.372v-2.41h-4.372v-3.011h4.819V9.674h-7.555v12.048zm15.386.241c2.994 0 5.06-1.945 5.06-4.768 0-2.805-2.066-4.75-5.06-4.75-3.012 0-5.078 1.945-5.078 4.75 0 2.823 2.066 4.768 5.078 4.768zm-2.496-4.768c0-1.48 1.033-2.513 2.496-2.513s2.478 1.033 2.478 2.513-1.015 2.513-2.478 2.513c-1.463 0-2.496-1.032-2.496-2.513zm14.853 4.768c1.188 0 2.255-.413 2.978-1.257l.275 1.016h1.945v-9.036h-2.616v4.716c0 1.428-.775 2.306-1.962 2.306-1.102 0-1.773-.774-1.773-2.1v-4.922h-2.616v5.18c0 2.514 1.428 4.097 3.769 4.097zm9.537-.241h2.616v-4.733c0-1.429.792-2.307 1.996-2.307 1.119 0 1.79.792 1.79 2.117v4.923h2.616v-5.198c0-2.496-1.428-4.079-3.786-4.079-1.205 0-2.289.413-3.012 1.256l-.275-1.015h-1.945v9.036zm17.142.241c1.309 0 2.427-.465 3.236-1.274l.31 1.033h1.945V8.986h-2.616v4.406c-.775-.603-1.756-.947-2.875-.947-2.684 0-4.595 1.98-4.595 4.75 0 2.806 1.911 4.768 4.595 4.768zm-2.013-4.768c0-1.463 1.015-2.513 2.495-2.513 1.463 0 2.479 1.05 2.479 2.513 0 1.48-1.016 2.513-2.479 2.513-1.48 0-2.495-1.032-2.495-2.513zm14.856 4.699c1.343 0 2.444-.43 3.219-1.222l.292 1.05h1.945v-5.439c0-2.392-1.618-3.838-4.32-3.838-2.306 0-3.821 1.102-4.148 3.064h2.513c.155-.637.809-1.067 1.652-1.067 1.033 0 1.739.585 1.739 1.48v.413h-3.271c-1.876 0-3.08 1.084-3.08 2.754 0 1.738 1.325 2.805 3.459 2.805zm-.878-2.909c0-.62.517-1.015 1.308-1.015h2.479c-.052 1.222-.998 2.048-2.306 2.048-.895 0-1.481-.413-1.481-1.033zm14.598 2.737h1.652V19.45h-1.084c-1.033 0-1.515-.5-1.515-1.549v-3.08h2.479v-2.135h-2.479v-2.34h-2.031l-.154 1.17c-.138.93-.396 1.17-1.377 1.17h-.809v2.134h1.755v3.477c0 2.203 1.274 3.425 3.563 3.425zm5.401 0h2.616v-9.036h-2.616v9.036zm-.379-11.962c0 .964.689 1.635 1.687 1.635.998 0 1.687-.671 1.687-1.635s-.689-1.635-1.687-1.635c-.998 0-1.687.671-1.687 1.635zm11.768 12.203c2.995 0 5.06-1.945 5.06-4.768 0-2.805-2.065-4.75-5.06-4.75-3.012 0-5.078 1.945-5.078 4.75 0 2.823 2.066 4.768 5.078 4.768zm-2.496-4.768c0-1.48 1.033-2.513 2.496-2.513s2.478 1.033 2.478 2.513-1.015 2.513-2.478 2.513c-1.463 0-2.496-1.032-2.496-2.513zm11.256 4.527h2.616v-4.733c0-1.429.792-2.307 1.997-2.307 1.119 0 1.79.792 1.79 2.117v4.923h2.616v-5.198c0-2.496-1.429-4.079-3.786-4.079-1.205 0-2.29.413-3.012 1.256l-.276-1.015h-1.945v9.036z" fill="#fff"/></svg>
